icons/24x24_help_badged_outline.svg

<svg xmlns="http://www.w3.org/2000/svg" width="24" height="24" viewBox="0 0 24 24">
  <path fill-rule="evenodd" d="M12,22 C6.4771525,22 2,17.5228475 2,12 C2,6.4771525 6.4771525,2 12,2 C17.5228475,2 22,6.4771525 22,12 C22,17.5228475 17.5228475,22 12,22 Z M12,20 C16.418278,20 20,16.418278 20,12 C20,7.581722 16.418278,4 12,4 C7.581722,4 4,7.581722 4,12 C4,16.418278 7.581722,20 12,20 Z M12,18.0254424 C11.172,18.0254424 10.5,17.3534424 10.5,16.5254424 C10.5,15.6974424 11.172,15.0254424 12,15.0254424 C12.829,15.0254424 13.5,15.6974424 13.5,16.5254424 C13.5,17.3534424 12.829,18.0254424 12,18.0254424 Z M14.0569999,11.1864424 C13.8939999,11.3734424 13.7099999,11.5384424 13.5249999,11.7024424 C13.3629999,11.8434424 13.2099999,11.9784424 13.1069999,12.1124424 C12.9469999,12.3194424 12.8549999,12.7094424 12.8559999,12.9814424 C12.8569999,13.4644424 12.4659999,13.9754424 11.9829999,13.9754424 L11.9809999,13.9754424 C11.4979999,13.9754424 11.1069999,13.4684424 11.1059999,12.9854424 C11.1039999,12.3234424 11.3229999,11.6164424 11.7219999,11.1004424 C11.9279999,10.8324424 12.1619999,10.5984424 12.3689999,10.4164424 C12.4959999,10.3044424 12.6259999,10.1794424 12.7389999,10.0504424 C13.2239999,9.49444242 13.2389999,8.63544242 12.7729999,8.10344242 C12.5699999,7.87244242 12.2379999,7.74244242 11.8789999,7.75544242 C11.5209999,7.77144242 11.1979999,7.92944242 11.0139999,8.18144242 C10.9219999,8.30944242 10.8699999,8.47344242 10.8699999,8.64644242 C10.8699999,9.12944242 10.4789999,9.52044242 9.99499989,9.52044242 C9.51199989,9.52044242 9.11999989,9.12844242 9.11999989,8.64544242 C9.11999989,8.09844242 9.28599989,7.58244242 9.59899989,7.15144242 C10.0989999,6.46244242 10.9019999,6.04444242 11.7999999,6.00344242 C12.7039999,5.96144242 13.5319999,6.30544242 14.0889999,6.94344242 C15.1199999,8.12044242 15.1069999,9.98444242 14.0569999,11.1864424 Z"/>
</svg>

<svg width="24" height="24" fill="none" xmlns="http://www.w3.org/2000/svg"><path fill-rule="evenodd" clip-rule="evenodd" d="M12 22C6.477 22 2 17.523 2 12S6.477 2 12 2s10 4.477 10 10-4.477 10-10 10Zm0-2a8 8 0 1 0 0-16 8 8 0 0 0 0 16Zm0-1.975a1.5 1.5 0 1 1 .001-3 1.5 1.5 0 0 1-.001 3Zm2.057-6.839a5.759 5.759 0 0 1-.532.516 3.142 3.142 0 0 0-.418.41c-.16.207-.252.597-.251.87.001.482-.39.993-.873.993h-.002c-.483 0-.874-.507-.875-.99-.002-.662.217-1.369.616-1.885.206-.268.44-.502.647-.684a4.12 4.12 0 0 0 .37-.366c.485-.556.5-1.415.034-1.947-.203-.23-.535-.36-.894-.348-.358.016-.681.174-.865.426a.8.8 0 0 0-.144.465.874.874 0 1 1-1.75 0c0-.548.166-1.064.479-1.495.5-.689 1.303-1.107 2.201-1.148.904-.042 1.732.302 2.289.94 1.031 1.177 1.018 3.041-.032 4.243Z" fill="#000"/></svg>
